; HEADER_BLOCK_START
; generated by OrcaSlicer 2.3.1 on 2025-12-17 at 19:18:19
; total layer number: 179
; filament_density: 1.24
; filament_diameter: 1.75
; max_z_height: 35.95
; HEADER_BLOCK_END

; external perimeters extrusion width = 0.40mm
; perimeters extrusion width = 0.40mm
; infill extrusion width = 0.40mm
; solid infill extrusion width = 0.40mm
; top infill extrusion width = 0.40mm
; first layer extrusion width = 0.40mm

; EXECUTABLE_BLOCK_START
M73 P0 R71
;TYPE:Custom
G90 ; use absolute coordinates
M83 ; extruder relative mode
M104 S205 ; set extruder temp
G1 X0 Y0 Z0.3 
G1 Y1.0 Z0.3 F1000 ; move print head up
M109 S205 ; wait for extruder temp
G92 E0.0
; initial load
;G1 X205.0 E19 F1000
;G1 Y1.6
;G1 X5.0 E19 F1000
;G92 E0.0
; intro line
;G1 Y2.0 Z0.2 F1000
;G1 X65.0 E9.0 F1000
;G1 X105.0 E12.5 F1000
;G92 E0.0
G90
G21
M83 ; use relative distances for extrusion
M106 S0
;LAYER_CHANGE
;Z:0.35
;HEIGHT:0.35
;BEFORE_LAYER_CHANGE
;0.35
G92 E0

;AFTER_LAYER_CHANGE
;0.35
;_SET_FAN_SPEED_CHANGING_LAYER
M204 S500
M205 X5 Y5
G1 X31.221 Y84.833 F1800
G1 Z.35
;TYPE:Brim
;WIDTH:0.4
G1 F900
G1 X31.313 Y84.826 E.00437
G1 X31.423 Y84.862 E.00547
G1 X31.49 Y84.919 E.00415
G1 X31.532 Y84.995 E.00411
G1 X31.546 Y85.117 E.00582
G1 X31.523 Y85.196 E.00388
G1 X31.446 Y85.289 E.00572
G1 X31.366 Y85.331 E.00426
G1 X31.256 Y85.34 E.00524
G1 X31.149 Y85.301 E.00536
G1 X31.085 Y85.243 E.00411
G1 X31.034 Y85.126 E.00602
G1 X31.032 Y85.044 E.00391
G1 X31.061 Y84.96 E.00416
G1 X31.142 Y84.87 E.00571
G1 X31.185 Y84.85 E.00226
G1 X31.39 Y81.746 F1800
G1 F900
G1 X31.377 Y81.33 E.01964
G1 X31.883 Y81.332 E.02395
G1 X31.74 Y81.36 E.00692
G1 X31.589 Y81.436 E.008
G1 X31.461 Y81.567 E.00865
G1 X31.405 Y81.708 E.00718
G1 X34.377 Y81.345 F1800
G1 F900
G1 X34.793 Y81.326 E.01969
G1 X34.799 Y81.384 E.00273
G1 X34.791 Y81.975 E.02793
G1 X34.768 Y81.706 E.01274
G1 X34.695 Y81.527 E.00914
G1 X34.566 Y81.403 E.0085
G1 X34.415 Y81.357 E.00743
G1 X34.79 Y82.033 F1800
G1 F900
G1 X34.788 Y82.213 E.00847
G1 X34.774 Y82.416 E.00965
G1 X34.788 Y82.073 E.01622
G1 X34.766 Y82.533 F1800
G1 F900
G1 X34.765 Y82.553 E.00093
G1 X34.758 Y82.587 E.00162
G1 X34.76 Y82.573 E.00065
G1 X34.714 Y82.835 F1800
G1 F900
G1 X34.707 Y82.872 E.00176
G1 X34.699 Y82.894 E.00109
G1 X34.704 Y82.874 E.00095
G1 X34.649 Y83.032 F1800
G1 F900
G1 X34.637 Y83.066 E.0017
G1 X34.507 Y83.246 E.01046
G1 X34.627 Y83.066 E.01022
G1 X31.959 Y89.22 F1800
;TYPE:Inner wall
G1 F900
G2 X32.54 Y88.875 I-19.853 J-34.031 E.03196
G1 X32.598 Y88.906 E.00309
G1 X32.882 Y89.072 E.01555
G2 X32.037 Y89.377 I8.079 J23.733 E.04245
G1 X31.977 Y89.256 E.00638
G1 X30.863 Y89.505 F1800
G1 F900
G1 X30.961 Y89.524 E.00475
G2 X31.198 Y89.521 I.107 J-.862 E.0112
G1 X31.241 Y89.68 E.00779
G1 X31.033 Y89.776 E.01085
G1 X30.809 Y89.667 E.01175
G1 X30.85 Y89.543 E.00616
G1 X32.662 Y90.922 F1800
;TYPE:Outer wall
G1 F900
G1 X32.672 Y90.938 E.00088
G2 X33.732 Y91.166 I2.099 J-7.156 E.0513
G3 X34.451 Y91.673 I-.218 J1.072 E.04278
G3 X34.169 Y92.368 I-.456 J.22 E.03993
G3 X33.493 Y92.413 I-.4 J-.892 E.03271
G3 X32.103 Y92.026 I1.538 J-8.211 E.0683
G3 X29.387 Y91.001 I10.826 J-32.789 E.13729
G3 X28.517 Y89.441 I.591 J-1.352 E.09067
G3 X29.183 Y88.878 I.767 J.231 E.04361
G3 X29.893 Y89.384 I.104 J.605 E.04586
G2 X30.198 Y89.86 I.576 J-.034 E.02788
G3 X31.019 Y90.194 I-58.401 J144.638 E.04189
G1 X31.056 Y90.191 E.00177
G3 X33.278 Y89.359 I12.041 J28.746 E.11218
G3 X33.906 Y89.302 I.5 J2.04 E.02994
G3 X34.313 Y89.389 I.002 J.989 E.01982
G3 X34.516 Y89.924 I-.404 J.458 E.02813
G3 X33.885 Y90.627 I-.743 J-.032 E.04836
G1 X33.136 Y90.742 E.03581
G2 X32.699 Y90.907 I2.388 J7.011 E.02211
G1 X28.044 Y90.336 F1800
;TYPE:Inner wall
G1 F900
M73 P0 R70
G1 X28.218 Y90.278 E.00869
G1 X28.296 Y90.474 E.00997
G2 X29.209 Y91.36 I1.655 J-.793 E.06139
G2 X30.929 Y92.031 I10.253 J-23.722 E.08729
G1 X30.924 Y92.173 E.00674
G2 X29.984 Y93.31 I.157 J1.086 E.07645
G3 X30.006 Y93.964 I-4.846 J.488 E.03094
G1 X29.873 Y94.007 E.00662
G3 X28.054 Y90.375 I8.54 J-6.547 E.1932
G1 X31.739 Y94.423 F1800
;TYPE:Outer wall
G1 F900
G2 X31.75 Y94.787 I.55 J.165 E.01751
G3 X31.594 Y95.477 I-1.016 J.133 E.03415
G3 X31.12 Y95.612 I-.353 J-.34 E.02441
G3 X30.563 Y95.094 I-.036 J-.52 E.04029
G1 X30.491 Y94.908 E.00946
G3 X30.408 Y93.686 I6.621 J-1.066 E.05795
G3 X30.453 Y92.947 I1.547 J-.275 E.03533
G3 X31.117 Y92.556 I.679 J.393 E.03807
G3 X31.989 Y92.898 I-.044 J1.394 E.0452
G3 X32.819 Y93.638 I-3.004 J4.204 E.05262
G1 X33.048 Y93.842 E.01453
G1 X33.229 Y93.915 E.00922
G2 X33.235 Y93.438 I-1.301 J-.255 E.02266
G3 X33.505 Y92.805 I.637 J-.103 E.03433
G3 X34.333 Y92.902 I.328 J.78 E.04125
G3 X34.538 Y93.542 I-.935 J.652 E.03224
G3 X34.547 Y95.063 I-41.872 J.998 E.07194
G3 X33.896 Y95.698 I-.673 J-.039 E.04717
G3 X32.983 Y95.368 I-.028 J-1.351 E.04695
G3 X32.092 Y94.583 I2.456 J-3.684 E.05632
G3 X31.774 Y94.441 I1.173 J-3.063 E.01644
G1 X32.487 Y92.579 F1800
;TYPE:Inner wall
G1 F900
G1 X32.667 Y92.632 E.00887
G1 X33.016 Y92.713 E.01692
G2 X32.854 Y93.087 I1.07 J.684 E.01932
G2 X32.414 Y92.722 I-4.871 J5.444 E.02705
G1 X32.469 Y92.614 E.00574
G1 X32.144 Y95.218 F1800
G1 F900
G1 X32.408 Y95.443 E.01637
G2 X33.171 Y95.956 I3.561 J-4.471 E.04353
G2 X33.851 Y96.099 I.615 J-1.238 E.0332
G1 X33.895 Y96.237 E.00687
G3 X33.094 Y96.716 I-2.682 J-3.576 E.0442
G1 X33.053 Y96.719 E.00193
G3 X32.767 Y96.584 I.116 J-.615 E.0151
G3 X31.706 Y95.897 I121.702 J-189.176 E.05976
G2 X32.03 Y95.532 I-.332 J-.622 E.02357
G1 X32.131 Y95.256 E.01388
G1 X33.701 Y87.647 F1800
;TYPE:Outer wall
G1 F900
G2 X34.183 Y87.907 I.753 J-.821 E.02615
G3 X34.386 Y88.106 I-.099 J.305 E.01396
G3 X34.418 Y88.731 I-.589 J.343 E.03069
G3 X33.862 Y88.978 I-.521 J-.422 E.02987
G3 X33.472 Y88.912 I.073 J-1.61 E.01876
G3 X32.59 Y88.456 I4.866 J-10.5 E.04693
G2 X32.352 Y88.521 I-.066 J.23 E.01225
G3 X31.391 Y89.074 I-6.42 J-10.036 E.05246
G3 X30.547 Y88.887 I-.287 J-.699 E.04346
G3 X30.765 Y87.867 I.543 J-.417 E.05603
G2 X31.257 Y87.683 I-.921 J-3.205 E.02486
G1 X31.337 Y87.581 E.00613
G2 X31.099 Y87.484 I-.202 J.156 E.0127
G3 X30.606 Y87.168 I.586 J-1.459 E.02787
G3 X30.713 Y86.363 I.39 J-.357 E.04376
G3 X31.43 Y86.36 I.361 J.622 E.03547
G3 X32.486 Y86.841 I-.781 J3.115 E.05518
G3 X33.643 Y86.2 I4.375 J6.521 E.06262
G1 X33.727 Y86.177 E.00412
G3 X34.374 Y87.232 I.148 J.635 E.07708
G3 X34.008 Y87.429 I-.401 J-.307 E.02022
G2 X33.73 Y87.62 I.568 J1.125 E.01602
G1 X31.694 Y84.228 F1800
G1 F900
G3 X32.144 Y84.669 I-.413 J.87 E.03036
G3 X32.237 Y85.56 I-.587 J.511 E.04508
G3 X31.478 Y86.014 I-.734 J-.364 E.04413
G3 X30.865 Y85.933 I-.182 J-.982 E.02975
G1 X30.64 Y85.862 E.01114
G3 X30.91 Y84.147 I.51 J-.798 E.10375
G2 X31.135 Y84.146 I.103 J-2.381 E.01061
G3 X31.657 Y84.212 I.147 J.952 E.02522
G1 X35.23 Y80.53 F1800
G1 F900
G3 X35.634 Y81.226 I-.386 J.689 E.03994
G3 X35.596 Y82.656 I-24.087 J.071 E.0676
G3 X34.167 Y84.422 I-1.956 J-.122 E.11456
G3 X32.633 Y84.473 I-.858 J-2.691 E.07351
G2 X32.01 Y84.251 I-1.533 J3.311 E.03128
G3 X31.283 Y83.81 I.711 J-1.994 E.0405
G3 X30.624 Y82.886 I.675 J-1.178 E.05534
G3 X30.556 Y81.546 I6.784 J-1.02 E.06354
G3 X30.543 Y80.993 I1.65 J-.315 E.02625
G3 X31.05 Y80.529 I.642 J.193 E.03412
G3 X31.815 Y80.505 I.461 J2.425 E.03632
G3 X34.588 Y80.506 I.791 J1194.98 E.1311
G3 X35.192 Y80.519 I.273 J1.3 E.0288
G1 X34.343 Y78.387 F1800
G1 F900
G2 X34.373 Y78.105 I-.187 J-.162 E.01427
G3 X34.138 Y77.5 I3.306 J-1.632 E.03074
G3 X34.881 Y76.93 I.622 J.041 E.0501
G3 X35.488 Y77.322 I-.061 J.761 E.03561
G3 X35.755 Y78.508 I-1.608 J.984 E.05849
G3 X35.123 Y79.773 I-1.555 J.014 E.0694
G3 X34.488 Y79.952 I-.732 J-1.38 E.03145
G2 X33.984 Y79.873 I-.72 J2.966 E.02413
G3 X33.539 Y79.518 I4.077 J-5.556 E.02695
G3 X33.437 Y79.358 I.573 J-.48 E.00897
G3 X33.147 Y79.712 I-.706 J-.283 E.02194
G1 X33.066 Y79.872 E.0085
G2 X32.514 Y80.089 I.769 J2.778 E.02812
G3 X30.421 Y78.409 I-.384 J-1.665 E.14593
G3 X30.719 Y77.177 I1.978 J-.173 E.06097
G3 X31.305 Y76.819 I.738 J.55 E.03326
G3 X32.15 Y77.539 I.144 J.686 E.06053
G3 X31.807 Y78.308 I-1.238 J-.09 E.04061
G2 X32.028 Y78.624 I.23 J.074 E.02108
G2 X32.559 Y78.219 I-.001 J-.551 E.03387
G3 X32.695 Y77.667 I7.155 J1.466 E.02691
G3 X33.28 Y77.351 I.518 J.26 E.03348
G3 X33.911 Y77.874 I-.039 J.689 E.04148
G1 X34.028 Y78.224 E.01742
G2 X34.304 Y78.397 I.238 J-.073 E.01682
G1 X34.197 Y73.871 F1800
G1 F900
G2 X34.239 Y73.758 I-.071 J-.09 E.00602
G3 X34.21 Y73.168 I34.239 J-1.946 E.02793
G3 X34.682 Y72.594 I.535 J-.041 E.03878
G3 X34.958 Y72.552 I.369 J1.507 E.01321
G3 X35.63 Y73.105 I.074 J.595 E.04602
G3 X35.619 Y75.625 I-389.023 J-.371 E.11915
G3 X35.563 Y76.263 I-2.234 J.126 E.03039
G3 X34.976 Y76.61 I-.499 J-.175 E.035
G3 X34.444 Y76.469 I-.001 J-1.068 E.02633
G3 X34.228 Y75.896 I.859 J-.652 E.02935
G3 X34.224 Y75.277 I2.824 J-.325 E.02932
G2 X31.273 Y75.289 I-.724 J187.608 E.13951
G3 X30.591 Y74.866 I.019 J-.792 E.0398
G3 X30.829 Y73.944 I.718 J-.306 E.04842
G3 X31.262 Y73.853 I.43 J.983 E.02108
G2 X31.982 Y73.874 I.457 J-3.393 E.03409
G3 X34.131 Y73.896 I.78 J29.14 E.10165
G2 X34.161 Y73.89 I-.005 J-.115 E.00144
G1 X34.921 Y95.252 F1800
;TYPE:Inner wall
G1 F900
G2 X34.948 Y94.612 I-2.358 J-.419 E.03041
G2 X34.914 Y93.34 I-8.461 J-.409 E.06022
G2 X34.593 Y92.572 I-1.391 J.129 E.03994
G2 X34.709 Y91.323 I-.607 J-.686 E.06531
G2 X34.273 Y90.92 I-1.397 J1.073 E.02817
G2 X34.916 Y89.765 I-.507 J-1.038 E.06652
G2 X34.604 Y89.114 I-.952 J.056 E.03499
G1 X34.761 Y88.951 E.01068
G2 X34.733 Y87.905 I-.964 J-.498 E.05164
G1 X34.557 Y87.646 E.0148
G2 X34.874 Y86.447 I-.841 J-.864 E.06155
G2 X33.346 Y85.883 I-1.015 J.395 E.08704
G2 X32.485 Y86.357 I10.649 J20.336 E.04649
G2 X32.2 Y86.206 I-.694 J.96 E.01529
G2 X32.703 Y84.895 I-.816 J-1.065 E.06982
G2 X35.442 Y84.069 I.633 J-2.856 E.14135
G2 X36.008 Y82.555 I-1.984 J-1.603 E.07773
G2 X36.018 Y81.048 I-15.782 J-.858 E.07127
G2 X35.322 Y80.124 I-1.132 J.129 E.05737
G2 X36.155 Y78.529 I-1.14 J-1.61 E.08836
G2 X35.933 Y77.284 I-2.498 J-.198 E.06041
G2 X35.617 Y76.844 I-1.697 J.887 E.02572
G2 X36 Y76.094 I-.632 J-.796 E.04107
G2 X36.02 Y73.563 I-48.548 J-1.655 E.11966
G2 X35.805 Y72.504 I-1.365 J-.274 E.05248
G1 X35.565 Y72.274 E.0157
G2 X36.158 Y70.708 I-1.528 J-1.474 E.08141
G2 X35.378 Y68.803 I-2.613 J-.043 E.10004
G1 X36.743 Y68.806 E.06454
G3 X37.355 Y69.349 I.055 J.554 E.04344
G1 X38.446 Y87.028 E.83738
G3 X35.045 Y95.318 I-10.602 J.493 E.43734
G1 X34.956 Y95.271 E.00473
G1 X34.031 Y71.981 F1800
;TYPE:Outer wall
G1 F900
G1 X34.028 Y71.96 E.001
G3 X34.064 Y71.179 I.628 J-.362 E.03905
G2 X34.309 Y70.698 I-1.346 J-.986 E.02561
G2 X33.723 Y69.973 I-.691 J-.04 E.04831
G2 X32.29 Y70.028 I-.617 J2.616 E.06867
G2 X31.946 Y71.013 I.29 J.653 E.05527
G3 X32.054 Y72.155 I-.453 J.619 E.06126
G3 X31.226 Y72.28 I-.484 J-.401 E.04336
G3 X30.43 Y70.949 I.806 J-1.385 E.0765
G3 X31.406 Y68.876 I2.096 J-.28 E.1145
G3 X32.434 Y68.616 I1.091 J2.157 E.05054
G3 X32.932 Y68.593 I.618 J7.917 E.02355
G3 X34.513 Y68.756 I.301 J4.84 E.07549
G3 X35.758 Y70.709 I-.766 J1.861 E.11665
G3 X35.181 Y72.081 I-1.646 J.115 E.07298
G3 X34.229 Y72.184 I-.565 J-.768 E.0474
G3 X34.111 Y72.076 I.426 J-.586 E.00761
G1 X34.057 Y72.011 E.00396
G1 X33.706 Y72.213 F1800
;TYPE:Inner wall
G1 F900
G1 X33.814 Y72.354 E.00839
G2 X34.02 Y72.529 I.804 J-.734 E.01279
G2 X33.81 Y73.15 I.868 J.639 E.03148
G2 X33.821 Y73.467 I1.951 J.092 E.01503
G3 X31.575 Y73.481 I-2.175 J-174.376 E.1062
G2 X30.611 Y73.605 I-.31 J1.39 E.04685
G2 X30.635 Y75.502 I.661 J.94 E.1055
G2 X31.701 Y75.682 I.824 J-1.642 E.05186
G3 X33.811 Y75.683 I.991 J144.994 E.09977
G2 X33.949 Y76.443 I2.741 J-.105 E.03665
G2 X34.142 Y76.732 I1.121 J-.538 E.01649
G1 X33.974 Y76.863 E.01009
G1 X33.828 Y77.097 E.01302
G2 X32.64 Y77.118 I-.576 J1.06 E.05875
G1 X32.531 Y77.222 E.0071
G2 X32.034 Y76.562 I-1.268 J.439 E.03971
G2 X30.202 Y77.283 I-.602 J1.158 E.10543
G2 X30.333 Y79.531 I2.46 J.984 E.10995
G2 X30.906 Y80.156 I2.403 J-1.628 E.04018
G2 X30.129 Y81.304 I.256 J1.011 E.07173
G3 X30.154 Y82.312 I-10.455 J.763 E.04766
G2 X30.527 Y83.66 I2.464 J.043 E.06703
G1 X30.648 Y83.81 E.00914
G2 X30.322 Y86.129 I.508 J1.254 E.13381
G1 X30.139 Y86.421 E.01628
G1 X30.061 Y86.671 E.01237
G2 X30.455 Y87.581 I1.151 J.043 E.04848
G2 X30.029 Y88.739 I.67 J.904 E.06177
G1 X29.691 Y88.543 E.01846
G2 X28.097 Y89.544 I-.42 J1.102 E.10302
G1 X28.099 Y89.841 E.01407
G1 X27.924 Y89.86 E.00833
G3 X27.68 Y87 I10.4 J-2.327 E.1361
G1 X28.769 Y69.349 E.83607
G3 X29.386 Y68.806 I.549 J.002 E.0439
G1 X30.808 Y68.803 E.06723
G1 X30.566 Y69.076 E.01728
G2 X30.327 Y71.955 I2.143 J1.627 E.14413
G2 X31.417 Y72.78 I1.559 J-.925 E.06628
G2 X32.618 Y71.922 I.111 J-1.114 E.07618
G2 X32.269 Y70.748 I-1.119 J-.307 E.06102
G3 X32.525 Y70.368 I.304 J-.071 E.02431
G3 X33.759 Y70.411 I.541 J2.208 E.05909
G3 X33.873 Y70.721 I-.062 J.199 E.01802
G2 X33.53 Y71.619 I1.312 J1.016 E.04612
G2 X33.677 Y72.166 I1.089 J.001 E.02707
G1 X33.685 Y72.179 E.00073
G1 X33.124 Y97.113 F1800
;TYPE:Outer wall
G1 F900
G3 X32.767 Y97.046 I-.06 J-.668 E.01737
G3 X31.363 Y96.154 I19.651 J-32.486 E.07866
G3 X30.57 Y95.595 I.996 J-2.254 E.04618
G3 X30.152 Y95.101 I.988 J-1.26 E.0308
G2 X29.387 Y94.026 I-10.441 J6.616 E.06238
G3 X27.28 Y86.981 I8.872 J-6.49 E.35447
G1 X28.37 Y69.318 E.83663
G3 X29.379 Y68.406 I.945 J.031 E.07178
G2 X31.853 Y68.346 I.691 J-22.805 E.11702
G3 X33.788 Y68.292 I1.329 J12.863 E.09162
G2 X35.275 Y68.402 I1.997 J-16.851 E.07053
G3 X36.827 Y68.408 I.675 J27.043 E.07337
G3 X37.754 Y69.318 I-.01 J.937 E.06783
G1 X38.845 Y87.008 E.83792
G3 X33.281 Y97.079 I-10.94 J.528 E.57266
G3 X33.163 Y97.108 I-.218 J-.634 E.00576
G1 X33.293 Y96.433 F1800
;TYPE:Gap infill
;WIDTH:0.497079
G1 F900
G3 X32.116 Y95.702 I2.832 J-5.877 E.08522
G1 X31.976 Y95.039 F1800
;WIDTH:0.151588
G1 F900
G1 X31.996 Y94.918 E.00136
;WIDTH:0.165826
G1 X32.016 Y94.797 E.00162
G1 X32.986 Y93.517 F1800
;WIDTH:0.166603
G1 F900
G1 X33.009 Y93.324 E.00258
G1 X32.274 Y92.556 F1800
;WIDTH:0.493769
G1 F900
G1 X31.969 Y92.403 E.0208
;WIDTH:0.45057
G1 X31.523 Y92.223 E.02628
G2 X31.126 Y92.124 I-1.097 J3.574 E.02239
G1 X30.558 Y92.071 F1800
;WIDTH:0.153613
G1 F900
G1 X30.427 Y92.163 E.00183
G1 X29.332 Y91.519 F1800
;TYPE:Bottom surface
;WIDTH:0.410115
G1 F600
G1 X30.13 Y92.317 E.05502
G2 X29.922 Y92.583 I.452 J.568 E.0166
G1 X29.019 Y91.68 E.06226
G1 X28.845 Y91.815 E.01077
G2 X28.979 Y92.113 I1.712 J-.592 E.01595
G1 X29.908 Y93.042 E.06406
G1 X29.801 Y93.323 F1800
;TYPE:Gap infill
;WIDTH:0.148453
G1 F900
G1 X29.79 Y93.465 E.00152
;WIDTH:0.161124
G1 X29.779 Y93.608 E.00178
G1 X30 Y94.176 F1800
;WIDTH:0.298283
G1 F900
G1 X30.266 Y94.873 E.02422
G1 X30.27 Y94.871 F1800
;WIDTH:0.225857
G1 F900
G1 X30.001 Y94.176 E.01636
G1 X28.789 Y91.553 F1800
;WIDTH:0.16788
G1 F900
G3 X28.452 Y91.033 I7.461 J-5.207 E.00836
G1 X28.441 Y91.06 F1800
;WIDTH:0.294981
G1 F900
G1 X28.81 Y91.533 E.01921
G1 X28.191 Y90.054 F1800
;WIDTH:0.140761
G1 F900
G1 X27.988 Y90.098 E.00198
;WIDTH:0.158413
G1 X27.786 Y90.142 E.00251
G1 X27.953 Y89.14 F1800
;WIDTH:0.135057
G1 F900
G1 X28.055 Y88.995 E.00155
;WIDTH:0.128745
G1 X28.102 Y88.938 E.00058
G1 X30.712 Y87.666 F1800
;WIDTH:0.146043
G1 F900
G3 X30.886 Y87.616 I.113 J.064 E.00207
G1 X30.511 Y86.241 F1800
;WIDTH:0.156431
G1 F900
G1 X30.59 Y86.155 E.00139
;WIDTH:0.171802
G1 X30.675 Y86.083 E.00157
G1 X31.771 Y86.255 F1800
;WIDTH:0.126963
G1 F900
G2 X31.94 Y86.144 I-1.053 J-1.795 E.00153
G1 X32.648 Y86.082 F1800
;WIDTH:0.168482
G1 F900
G1 X32.69 Y85.991 E.00136
;WIDTH:0.145437
G1 X32.753 Y85.831 E.00176
G1 X32.45 Y84.722 F1800
;WIDTH:0.132111
G1 F900
G1 X32.395 Y84.584 E.00123
G1 X34.365 Y87.535 F1800
;WIDTH:0.140176
G1 F900
G1 X34.277 Y87.612 E.0011
;WIDTH:0.171817
G1 X34.249 Y87.653 E.0007
G1 X34.265 Y87.667 E.0003
G3 X34.376 Y87.759 I-.906 J1.212 E.00203
G1 X33.999 Y90.825 F1800
;WIDTH:0.133016
G1 F900
G1 X33.907 Y90.862 E.00084
;WIDTH:0.167658
G1 X33.878 Y90.888 E.00052
;WIDTH:0.212755
G1 X33.85 Y90.913 E.00077
G1 X33.885 Y90.941 E.0009
;WIDTH:0.17578
G1 X34.006 Y91.009 E.00203
;WIDTH:0.150243
G1 X34.115 Y91.075 E.0014
G1 X33.952 Y90.915 F1800
;WIDTH:0.204756
G1 F900
